X:1
T:Andrea Gabrieli
T:Alleluja
T:coda
T:Scritto con MuseScore, un software libero e gratuito: http://musescore.org/it
Z:Scritto con MuseScore, un software libero e gratuito: http://musescore.org/it
%%score 1 2 3 4
L:1/8
Q:1/4=96
M:3/4
K:F
V:1 treble nm="Solo" snm="S."
V:2 treble nm="Alto" snm="A."
V:3 treble-8 nm="Tenor" snm="T."
V:4 bass nm="Bass" snm="B."
V:1
"^Andante" B c d B3 | cd c B GF | B cd cB B3 ||[K:Bb] z2 d2 B2 c2 | d4 (c2- c)B | A2 B2 G4 | %6
w: Al\- le\- lu\- ia,|al \- le\- lu\- ia, *|Al\- le\- lu\- * ia, *|Al\- le\- lu\-|ia, al\- * *|* le\- lu\-|
 !breath!A2 F2 G2 A2 | B4 A2 (G2- | G)F F4 =E2 | F4 z4 | z2 F2 B2 G2 | F2 A2 d2 c2 | %12
w: ia, al\- le\- lu\-|ia, al\- le\-|* * * lu\-|ia,|al\- le\- lu\-|ia, al\- le\- lu\-|
 !breath!A2 d2 B2 c2 | d4 (c2- c)B | A2 B2 G4 | !breath!A2 F2 G2 A2 | B4 A2 G2 | ((GF)) F4 =E2 | %18
w: ia, al\- le\- lu\-|ia, al\- * *|* le\- lu\-|ia, al\- le\- lu\-|ia, al\- le\-|* * * lu\-|
 F8- | F8 |] %20
w: ia.||
V:2
[K:Bb] z6 | z6 | z8 || z2 F2 G2 A2 | B4 A2 (G2- | G)F F4 =E2 | !breath!F2 D2 E2 E2 | %7
w: |||Al\- le\- lu\-|ia, al\- *|* * le\- lu\-|ia, al\- le\- lu\-|
 !breath!F2 F4 E2 | D4 C4 | z2 D2 B,2 !breath!C2 | D2 D2 B,2 C2 | D2 F2 F2 =E2 | %12
w: ia, al\- le\-|lu\- ia,|al\- le\- lu\-|ia, al\- le\- lu\-|ia, al\- le\- lu\-|
 !breath!F2 F2 G2 A2 | B4 A2 G2- | (G!breath!F) F4 =E2 | !breath!F2 D2 E2 E2 | F4 z2 F2 | D4 C4 | %18
w: ia, al\- le\- lu\-|ia, al\- le\-|* * * lu\-|ia, al\- le\- lu\-|ia, al\-|le\- lu|
 !breath!C2 C2 B,2 D2 | C8 |] %20
w: ia, al\- le\- lu\-|ia.|
V:3
[K:Bb] z6 | z6 | z8 || B4 e2 c2 | (Bc)de f2 c2 | (d2 B2) c4 | F2 B2 B2 c2 | d4 (c2- c)B | %8
w: |||Al\- le\- lu\-|ia, * * * * al\-|le \- lu\-|ia, al\- le\- lu\-|ia, al\- * *|
 A2 B2 G4 | !breath!F2 B2 G2 A2 | B4 z4 | z2 F2 B2 G2 | F2 B2 e2 c2 | (Bc)de f2 c2 | (d2 B2) c4 | %15
w: * le\- lu\-|ia, al\- le\- lu\-|ia,|al\- le\- lu\-|ia, al\- le\- lu\-|ia, * * * * al\-|le \- lu\-|
 !breath!F2 B2 B2 c2 | d4 (c2- c)B | A2 B2 G4 | !breath!F2 A2 d2 B2 | A8 |] %20
w: ia, al\- le\- lu\-|ia, al\- * *|* le\- lu\-|ia, al\- le\- lu\-|ia.|
V:4
[K:Bb] z6 | z6 | z8 || z8 | z8 | z8 | z2 B,,2 E,2 C,2 | (B,,C,)D,E, F,2 C,2 | (D,2 B,,2) C,4 | %9
w: ||||||Al\- le\- lu\-|ia, * * * * al\-|le \- lu\-|
 !breath!F,2 B,,2 E,2 C,2 | B,,4 z4 | z2 D,2 B,,2 C,2 | D,4 z4 | z8 | z8 | z2 B,,2 E,2 C,2 | %16
w: ia, al\- le\- lu\-|ia,|al\- le\- lu\-|ia,|||al\- le\- lu-|
 (B,,C,)D,E, F,2 C,2 | (D,2 B,,2) C,4 | !breath!F,2 F,2 B,,2 B,,2 | F,8 |] %20
w: ia, * * * * al\-|le \- lu\-|ia, al\- le\- lu\-|ia.|

